!!!OTL: Laohan fangyang
!!!ARE: Asia, China,ÿHenan, Tanghe
!! IV, 161
!!!SCT: C1663
!!!YEM: Copyright 1995, estate of Helmut Schaffrath.
**kern
*ICvox
*Ivox
!! Mixed meters:  2/4; 1/4
*M1/4
*k[f#]
*G:
{8.gg
16gg
8ee
8dd
=1
8b
16dd
16ee
4gg}
=2
{8.b
16b
8b
8b
=3
8a
8dd
4dd}
=4
{8.b
16gg
8ee
16ee
16dd
=5
8b
16b
16dd
4b}
=6
{8.b
16a
8b
8b
=7
8.b
16a
8b
8b
=8
8a
8dd
4dd}
=9
{8r
4b
8gg
=10
8ee
16ee
16dd
8b
16b
16gg
=11
4ee}
=12
*M2/4
{8.b
16b
8b
8b
=13
8a
8dd
4b}
=14
{8r
4b
8gg
=15
*M1/4
8ee
16r
16dd
=16
*M2/4
8b
8dd
4b}
=17
{8.b
16b
8b
16b
16b
=18
8a
8dd
4b}
=19
{8.b
16b
8b
8b
=20
8a
8dd
8b}
{8b
=21
8.gg
16gg
8ee
8dd
=22
4b
8a
8b
=23
8.cc#
16ee
4dd}
=24
{4ff#
4ff#
=25
2ee
=26
8r
4ee
8dd
=27
4cc#
8b
8b
=28
4a
4dd
=29
*M1/4
4b}
=30
*M2/4
{8b
16b
16b
8b
8b
=31
8a
8dd
8r
8dd}
=32
{8.b
16b
8b
8b
=33
8b
8gg
8r
8b}
=34
{8b
8b
8b
8b
=35
8a
8dd
4dd}
=36
{8.b
16b
8b
8b
=37
8b
8gg
8r
8dd}
=38
{8.b
16b
8b
8b
=39
8a
8dd
4dd}
=40
{8.b
16b
8b
8b
=41
8b
8gg
8r
8gg}
=42
{8.b
16b
8b
8b
=43
8a
8dd
4dd}
=44
{8.b
16b
8b
8b
=45
8a
8dd
8r
8dd}
=46
{8.ee
16ee
8gg
8dd
=47
8a
8dd
4dd}
=48
{4ff#
[4ee
=49
2ee]
=50
8r
4ee
8dd
=51
4b
4dd
=52
2g}
=53
{8r
8ee
8dd
8ee
=54
8.gg
16gg
8ee
8dd
=55
4dd
[4ee
=56
8ee]}
{8b
8a
8b
=57
4gg
8.dd
16ee
=58
8.b
16a
4g
=59
8.b
16dd
8a
8b
=60
2g}
==
!!!AGN: Xiaodiao
!!!AMT: irregular
!!!AIN: vox
!!!EED: Helmut Schaffrath
!!!EEV: 1.0
*-
!!!ONB: Tied note syntax fixed by Craig Sapp, 2004/05/03/
